X: 10372
M: C|
L: 1/8
K: D
(uFE) | DAFA DAFA | (ef)ed (dc)BA | eAfA gAfA | (3efd (3cdB (3ABG (3FGE |
(ucd) |\
eAAA fAAA | gAAA fAAA | eAfA gAfA | (3efd (3cdB (3ABG (3FGE |


